X:42
T:Drops of Brandy
S:John Moore's Book 2
Z:Transcribed by Steve Mansfield 04/2021
%%VWML: Moore1-4494-p33-0
F:http://www.vwml.org/record/Moore2/4494/p33
M:9/8
L:1/8
K:G
GAB BGB BAB | GAB gdB d2g | GAB BAB BAB | FGA ABA F2D :| 
|: GAB gdB gdB | GAB gdB cBA | GAB gdB gdB | FGA ABG F2D :| 

